X:2516
T:Polska från Uppland
T:Svenska Folkdansar H3 nr 28
O:Uppland
B:Traditioner av Svenska Folkdansar Häfte 3, nr 28
R:Polska
Z:Nils L
U:i=invertedturn
M:3/4
L:1/16
K:C
(cded) c2G2 G2G2 | (G2>F2) E2E2 C4 | SGABc Bcde d4 | cdef efga g4 |
GABc Bcde d4 | cdef efga g4 | ceag fedc BAGF | EcDB (B4 !fine!c4) ::
gaba g2d2 d2d2 | d2d2 {c/}B2AB G4 | efed cdcB ABAG | ^FADF (F4 G4) |
c4 Tc2dB Tc2dB | (c2e2) (ie2g2) g4 | c4 Tc2dB Tc2dB | (c2e2) "D.C. al Segno"(ie2g2) g4 :|
(:musicend:)
(:music:)
